assets/static/img/icon/vk.svg

<svg width="24" height="24" viewBox="0 0 24 24" fill="none" xmlns="http://www.w3.org/2000/svg">
	<path d="M5.56283 8.43527H7.77032C7.81647 8.4352 7.86154 8.44939 7.89954 8.47596C7.93754 8.50253 7.96666 8.54022 7.98302 8.58399C8.22734 9.22258 9.24199 11.7217 10.1703 11.9258C10.8602 11.9258 10.6159 8.6015 9.73923 8.6015C9.50928 8.6015 10.1474 8.18741 10.1905 8.16991C11.0052 7.94336 11.865 7.94336 12.6797 8.16991C13.1194 8.35654 13.1942 8.87852 13.2056 9.32178C13.2172 9.76498 12.717 11.6546 13.3752 11.8588C14.2375 12.127 15.3471 9.38303 15.6057 8.70939C15.6225 8.66615 15.6519 8.62909 15.6898 8.60307C15.7278 8.57704 15.7727 8.56328 15.8184 8.56359H18.276C18.314 8.56346 18.3514 8.57289 18.3849 8.59102C18.4184 8.60914 18.447 8.63541 18.468 8.66747C18.4891 8.69952 18.502 8.73638 18.5056 8.77473C18.5092 8.81309 18.5034 8.85174 18.4887 8.88726C17.9824 10.0588 17.3756 11.1829 16.675 12.2466C16.6154 12.3343 16.5875 12.4403 16.5959 12.5465C16.6042 12.6527 16.6484 12.7527 16.721 12.8298C17.4568 13.6288 19.4688 15.8916 18.3191 15.8916H15.8385C15.7744 15.8918 15.7111 15.8781 15.6526 15.8515C15.5941 15.8248 15.5419 15.7859 15.4994 15.7372C15.1143 15.3055 13.9933 14.1041 13.4873 14.2004C13.0677 14.2791 13.0275 15.0022 13.0476 15.4747C13.0539 15.5965 13.0129 15.7161 12.9335 15.8076C12.8539 15.8993 12.7422 15.9556 12.6222 15.9645C12.1824 15.9908 11.5817 16.0025 11.5271 15.9996C9.77372 15.8859 8.7361 14.699 7.74445 13.3751C6.7057 11.9716 5.89541 10.4081 5.34438 8.74438C5.33312 8.70918 5.33017 8.67178 5.33577 8.6352C5.34137 8.59863 5.35536 8.5639 5.37662 8.53382C5.39787 8.50374 5.4258 8.47916 5.45815 8.46204C5.4905 8.44492 5.52635 8.43575 5.56283 8.43527Z" fill="white" />
</svg>

<svg xmlns="http://www.w3.org/2000/svg" width="24" height="24" fill="none"><path fill="#fff" d="M5.563 8.435H7.77a.225.225 0 0 1 .213.149c.244.639 1.259 3.138 2.187 3.342.69 0 .446-3.325-.43-3.325-.23 0 .407-.414.45-.431a4.64 4.64 0 0 1 2.49 0c.44.187.514.709.526 1.152.011.443-.489 2.333.17 2.537.862.268 1.971-2.476 2.23-3.15a.23.23 0 0 1 .212-.145h2.458a.23.23 0 0 1 .192.103.24.24 0 0 1 .02.22 22 22 0 0 1-1.813 3.36.47.47 0 0 0 .046.583c.736.799 2.748 3.062 1.598 3.062h-2.48a.45.45 0 0 1-.34-.155c-.385-.431-1.506-1.633-2.012-1.537-.42.08-.46.802-.44 1.275a.47.47 0 0 1-.114.333.46.46 0 0 1-.31.156c-.44.027-1.041.039-1.096.036-1.753-.114-2.79-1.301-3.783-2.625a16.5 16.5 0 0 1-2.4-4.63.24.24 0 0 1 .114-.283.23.23 0 0 1 .105-.027"/></svg>
